X: 19945
T: Jigermyster, The
R: jig
M: 6/8
K: Emajor
|:e3 ede|fed e2e|Bcc cBG|GBB BGF|
EEE EFG|BcB BGF|GBB BGF|1 EEE E2d:|2 GEE E3||
|:DEE EDE|FED E2F|G3 G2G|FGA B2G|
~A3 ecA|GAe cAF|EEE FGA|1 GEE EEE:|2 GEE E3||

